public/svgs/duotone/microphone-lines.svg

<svg xmlns="http://www.w3.org/2000/svg" viewBox="0 0 384 512"><!-- Font Awesome Pro 6.0.0-alpha2 by @fontawesome - https://fontawesome.com License - https://fontawesome.com/license (Commercial License) --><defs><style>.fa-secondary{opacity:.4}</style></defs><path d="M208 128H288V96H208C199.164 96 192 103.164 192 112S199.164 128 208 128ZM208 192H288V160H208C199.164 160 192 167.164 192 176S199.164 192 208 192ZM344 192H344C330.745 192 320 202.745 320 216V256C320 329.329 258.034 388.423 183.746 383.738C117.664 379.57 64 317.147 64 250.934V216C64 202.745 53.255 192 40 192H40C26.745 192 16 202.745 16 216V248.156C16 337.812 79.969 417.719 168 429.844V464H128C109.807 464 95.158 479.186 96.038 497.572C96.431 505.785 103.778 512 112 512H272C280.222 512 287.569 505.784 287.962 497.572C288.842 479.186 274.195 464 256 464H216V430.219C301.719 418.469 368 344.906 368 256V216C368 202.745 357.255 192 344 192ZM208 256H288V224H208C199.164 224 192 231.164 192 240S199.164 256 208 256Z" class="fa-secondary"/><path d="M192 352C245.031 352 288 309.031 288 256H208C199.164 256 192 248.836 192 240S199.164 224 208 224H288V192H208C199.164 192 192 184.836 192 176S199.164 160 208 160H288V128H208C199.164 128 192 120.836 192 112S199.164 96 208 96H288C288 42.969 245.031 0 192 0S96 42.969 96 96V256C96 309.031 138.969 352 192 352Z" class="fa-primary"/></svg>

<svg xmlns="http://www.w3.org/2000/svg" viewBox="0 0 384 512"><!--! Font Awesome Pro 6.5.1 by @fontawesome - https://fontawesome.com License - https://fontawesome.com/license (Commercial License) Copyright 2023 Fonticons, Inc. --><defs><style>.fa-secondary{opacity:.4}</style></defs><path class="fa-secondary" d="M208 96c-8.8 0-16 7.2-16 16s7.2 16 16 16h80V96H208zm0 64c-8.8 0-16 7.2-16 16s7.2 16 16 16h80V160H208zm0 64c-8.8 0-16 7.2-16 16s7.2 16 16 16h80V224H208zM64 216c0-13.3-10.7-24-24-24s-24 10.7-24 24v40c0 89.1 66.2 162.7 152 174.4V464H120c-13.3 0-24 10.7-24 24s10.7 24 24 24h72 72c13.3 0 24-10.7 24-24s-10.7-24-24-24H216V430.4c85.8-11.7 152-85.3 152-174.4V216c0-13.3-10.7-24-24-24s-24 10.7-24 24v40c0 70.7-57.3 128-128 128s-128-57.3-128-128V216z"/><path class="fa-primary" d="M192 0C139 0 96 43 96 96V256c0 53 43 96 96 96s96-43 96-96H208c-8.8 0-16-7.2-16-16s7.2-16 16-16h80V192H208c-8.8 0-16-7.2-16-16s7.2-16 16-16h80V128H208c-8.8 0-16-7.2-16-16s7.2-16 16-16h80c0-53-43-96-96-96z"/></svg>
